X: 1
T: Counting The Coppers
M: 4/4
L: 1/8
R: reel
K: Dmaj
|:B|AD~D2 ABdB|ADFA BAdc|BEED E2FA|~B3e dBAF|
D2 (3EFG ABdB|ADFA defg|afge fdec|Aceg fdd:|
|:a|fd~d2 adbd|ad~d2 f2gf|eA~A2 cAeA|ceAc efga|
fd~d2 fdad|fade fgaf|gfec Acef|gecd edd:|
